svg/24/logo-microsoft.svg

<svg width="24" height="24" viewBox="0 0 24 24" fill="currentColor" xmlns="http://www.w3.org/2000/svg"><path d="M11.5714 3H3V11.5714H11.5714V3Z"/><path d="M21 3H12.4286V11.5714H21V3Z"/><path d="M3 12.4286H11.5714V21H3V12.4286Z"/><path d="M21 12.4286H12.4286V21H21V12.4286Z"/></svg>

<svg xmlns="http://www.w3.org/2000/svg" width="24" height="24" fill="currentColor" viewBox="0 0 24 24">
  <path d="M11.571 3H3v8.571h8.571V3ZM21 3h-8.571v8.571H21V3ZM3 12.429h8.571V21H3v-8.571Zm18 0h-8.571V21H21v-8.571Z"/>
</svg>
